;FLAVOR:Marlin
;TIME:3692
;Filament used: 0.899948m
;Layer height: 0.06
;MINX:-10.05
;MINY:-11.55
;MINZ:0.3
;MAXX:20.05
;MAXY:11.55
;MAXZ:9.54
;Generated with Cura_SteamEngine 5.0.0
M140 S65
M105
M190 S65
M104 S210
M105
M109 S210
M82 ;absolute extrusion mode
;FLAVOR:Marlin
M82 ;absolute extrusion mode
G21
G90
M82
M107 T0
G28
G92 E0
G0 E3 F200
G92 E0 ; reset extrusion distance
M106 S255 ; Enable cooling fan full speed
G1 X-98 Y0 Z0.4 F3000 ; move to arc start
G3 X0 Y-98 I98 Z0.4 E40 F400 ; lay arc stripe 90deg
G92 E0 ; reset extrusion distance
G4 P500 ; wait for 0.5 sec
G0 Z10 E-1 ; Lift 15mm and retract 1mm filament
G4 P2000 ; wait for 5 sec
G0 Z15
M107 ; Disable cooling fan
G1 X0 Y-85 Z4 E0 F3000 ; get off the bed
G92 E0
G92 E0
G1 F1500 E-6.5
;LAYER_COUNT:155
;LAYER:0
M107
G0 F3600 X-8.313 Y-2.754 Z0.3
G0 X-9.067 Y-.167
;TYPE:SKIRT
G1 F1500 E0
G1 F1800 X-8.313 Y-2.754 E0.23856
G1 X-7.632 Y-5.369 E0.47778
G1 X-6.939 Y-8.395 E0.75261
G1 X-6.773 Y-8.94 E0.80305
G1 X-6.533 Y-9.455 E0.85335
G1 X-6.223 Y-9.932 E0.90371
G1 X-5.849 Y-10.361 E0.9541
G1 X-5.418 Y-10.733 E1.0045
G1 X-4.94 Y-11.041 E1.05484
G1 X-4.424 Y-11.279 E1.10515
G1 X-3.879 Y-11.443 E1.15554
G1 X-3.105 Y-11.539 E1.22459
G1 X-2.67 Y-11.55 E1.26311
G1 X1.046 Y-11.55 E1.59209
G1 X2.686 Y-11.526 E1.73729
G1 X3.664 Y-11.498 E1.82391
G1 X6.391 Y-11.498 E2.06533
G1 X8.626 Y-11.55 E2.26325
G1 X12.351 Y-11.55 E2.59302
G1 X13.05 Y-11.54 E2.65491
G1 X13.617 Y-11.492 E2.70529
G1 X14.171 Y-11.365 E2.75561
G1 X14.702 Y-11.161 E2.80597
G1 X15.2 Y-10.885 E2.85637
G1 X15.654 Y-10.542 E2.90675
G1 X16.055 Y-10.139 E2.95708
G1 X16.396 Y-9.684 E3.00742
G1 X16.67 Y-9.185 E3.05781
G1 X16.938 Y-8.404 E3.13091
G1 X17.182 Y-7.348 E3.22686
G1 X17.347 Y-6.591 E3.29546
G1 X17.988 Y-3.991 E3.53253
G1 X18.716 Y-1.361 E3.77412
G1 X19.5 Y1.19 E4.01038
G1 X19.844 Y2.255 E4.10946
G1 X19.98 Y2.807 E4.15979
G1 X20.038 Y3.377 E4.21052
G1 X20.05 Y3.83 E4.25063
G1 X20.05 Y6.814 E4.51481
G1 X20.041 Y7.541 E4.57917
G1 X19.994 Y8.108 E4.62954
G1 X19.868 Y8.663 E4.67993
G1 X19.665 Y9.194 E4.73025
G1 X19.39 Y9.692 E4.78062
G1 X19.048 Y10.147 E4.83101
G1 X18.646 Y10.549 E4.88134
G1 X18.191 Y10.891 E4.93173
G1 X17.693 Y11.166 E4.98209
G1 X17.162 Y11.368 E5.03239
G1 X16.607 Y11.494 E5.08278
G1 X16.105 Y11.539 E5.1274
G1 X15.67 Y11.55 E5.16592
G1 X-5.345 Y11.55 E7.02638
G1 X-6.043 Y11.541 E7.08818
G1 X-6.61 Y11.493 E7.13856
G1 X-7.165 Y11.367 E7.18894
G1 X-7.696 Y11.164 E7.23927
G1 X-8.194 Y10.889 E7.28963
G1 X-8.649 Y10.547 E7.34002
G1 X-9.051 Y10.145 E7.39035
G1 X-9.392 Y9.69 E7.44069
G1 X-9.667 Y9.191 E7.49113
G1 X-9.869 Y8.66 E7.54143
G1 X-9.994 Y8.105 E7.59179
G1 X-10.04 Y7.6 E7.63669
G1 X-10.05 Y7.158 E7.67583
G1 X-10.049 Y4.138 E7.94319
G1 X-10.037 Y3.429 E8.00596
G1 X-9.988 Y2.863 E8.05626
G1 X-9.845 Y2.262 E8.11095
G1 X-9.067 Y-.167 E8.33675
G1 F1500 E1.83675
G0 F3600 X-9.21 Y4.153
G1 F1500 E8.33675
G1 F1800 X-9.198 Y3.444 E8.39953
G1 X-9.149 Y2.94 E8.44436
G1 X-9.045 Y2.519 E8.48275
G1 X-8.271 Y0.104 E8.70726
G1 X-7.498 Y-2.551 E8.95207
G1 X-6.817 Y-5.166 E9.1913
G1 X-6.12 Y-8.208 E9.46759
G1 X-5.968 Y-8.691 E9.51241
G1 X-5.743 Y-9.144 E9.55719
G1 X-5.448 Y-9.556 E9.60205
G1 X-5.093 Y-9.917 E9.64688
G1 X-4.685 Y-10.217 E9.69171
G1 X-4.236 Y-10.45 E9.73649
G1 X-3.755 Y-10.609 E9.78134
G1 X-3.081 Y-10.7 E9.84155
G1 X-2.67 Y-10.71 E9.87795
G1 X1.035 Y-10.71 E10.20595
G1 X2.662 Y-10.687 E10.35001
G1 X3.675 Y-10.658 E10.43972
G1 X6.411 Y-10.658 E10.68194
G1 X8.626 Y-10.71 E10.87809
G1 X12.339 Y-10.71 E11.2068
G1 X13.038 Y-10.7 E11.26869
G1 X13.542 Y-10.653 E11.31351
G1 X14.033 Y-10.527 E11.35838
G1 X14.497 Y-10.325 E11.40318
G1 X14.924 Y-10.053 E11.44801
G1 X15.303 Y-9.718 E11.49279
G1 X15.625 Y-9.326 E11.5377
G1 X15.881 Y-8.89 E11.58246
G1 X16.119 Y-8.214 E11.64591
G1 X16.361 Y-7.17 E11.74078
G1 X16.523 Y-6.424 E11.80836
G1 X17.184 Y-3.745 E12.05265
G1 X17.907 Y-1.134 E12.2925
G1 X18.701 Y1.448 E12.53165
G1 X19.045 Y2.513 E12.63073
G1 X19.162 Y3.006 E12.67559
G1 X19.209 Y3.733 E12.74008
G1 X19.21 Y6.804 E13.01196
G1 X19.201 Y7.531 E13.07633
G1 X19.155 Y8.035 E13.12113
G1 X19.03 Y8.526 E13.16599
G1 X18.829 Y8.991 E13.21083
G1 X18.558 Y9.418 E13.25561
G1 X18.223 Y9.798 E13.30045
G1 X17.832 Y10.12 E13.3453
G1 X17.396 Y10.377 E13.3901
G1 X16.925 Y10.562 E13.4349
G1 X16.43 Y10.671 E13.47977
G1 X15.76 Y10.709 E13.53918
G1 X-5.334 Y10.71 E15.40664
G1 X-6.032 Y10.701 E15.46844
G1 X-6.537 Y10.654 E15.51334
G1 X-7.027 Y10.529 E15.55811
G1 X-7.492 Y10.328 E15.60296
G1 X-7.92 Y10.057 E15.6478
G1 X-8.299 Y9.722 E15.69259
G1 X-8.621 Y9.331 E15.73743
G1 X-8.878 Y8.895 E15.78223
G1 X-9.063 Y8.423 E15.82711
G1 X-9.171 Y7.929 E15.87188
G1 X-9.209 Y7.245 E15.93253
G1 X-9.21 Y4.153 E16.20626
G1 F1500 E9.70626
G0 F3600 X-9.63 Y7.158
G1 F1500 E16.20626
G1 F1800 X-9.629 Y4.146 E16.47292
G1 X-9.617 Y3.437 E16.53569
G1 X-9.568 Y2.9 E16.58343
G1 X-9.445 Y2.391 E16.62979
G1 X-8.669 Y-0.031 E16.85495
G1 X-7.911 Y-2.632 E17.09479
G1 X-7.218 Y-5.295 E17.3384
G1 X-6.529 Y-8.302 E17.61151
G1 X-6.37 Y-8.816 E17.65914
G1 X-6.137 Y-9.302 E17.70686
G1 X-5.835 Y-9.747 E17.75447
G1 X-5.47 Y-10.143 E17.80215
G1 X-5.05 Y-10.48 E17.84982
G1 X-4.585 Y-10.752 E17.89751
G1 X-4.085 Y-10.952 E17.94519
G1 X-3.561 Y-11.076 E17.99286
G1 X-2.772 Y-11.129 E18.06287
G1 X1.041 Y-11.13 E18.40043
G1 X2.674 Y-11.107 E18.54502
G1 X3.687 Y-11.078 E18.63473
G1 X6.401 Y-11.078 E18.875
G1 X8.626 Y-11.13 E19.07204
G1 X12.345 Y-11.13 E19.40128
G1 X13.044 Y-11.12 E19.46317
G1 X13.58 Y-11.072 E19.51081
G1 X14.104 Y-10.946 E19.55852
G1 X14.603 Y-10.743 E19.60622
G1 X15.066 Y-10.469 E19.65385
G1 X15.484 Y-10.129 E19.70155
G1 X15.847 Y-9.732 E19.74917
G1 X16.147 Y-9.284 E19.7969
G1 X16.378 Y-8.798 E19.84454
G1 X16.528 Y-8.309 E19.88983
G1 X16.771 Y-7.259 E19.98524
G1 X16.933 Y-6.512 E20.05291
G1 X17.582 Y-3.88 E20.2929
G1 X18.308 Y-1.259 E20.53367
G1 X19.113 Y1.359 E20.77615
G1 X19.444 Y2.384 E20.87151
G1 X19.571 Y2.908 E20.91924
G1 X19.628 Y3.72 E20.99131
G1 X19.63 Y6.809 E21.26478
G1 X19.621 Y7.536 E21.32914
G1 X19.574 Y8.072 E21.37678
G1 X19.449 Y8.596 E21.42447
G1 X19.247 Y9.096 E21.47221
G1 X18.974 Y9.56 E21.51987
G1 X18.635 Y9.978 E21.56752
G1 X18.238 Y10.342 E21.6152
G1 X17.792 Y10.643 E21.66284
G1 X17.305 Y10.875 E21.71059
G1 X16.79 Y11.032 E21.75826
G1 X16.093 Y11.12 E21.82045
G1 X15.67 Y11.13 E21.85791
G1 X-5.34 Y11.13 E23.71793
G1 X-6.038 Y11.121 E23.77973
G1 X-6.574 Y11.074 E23.82736
G1 X-7.098 Y10.948 E23.87508
G1 X-7.597 Y10.746 E23.92273
G1 X-8.061 Y10.473 E23.9704
G1 X-8.479 Y10.134 E24.01804
G1 X-8.843 Y9.737 E24.06572
G1 X-9.144 Y9.29 E24.11343
G1 X-9.375 Y8.804 E24.16107
G1 X-9.532 Y8.289 E24.20874
G1 X-9.62 Y7.589 E24.2712
G1 X-9.63 Y7.158 E24.30936
G1 F1500 E17.80936
;MESH:??????????????????????????????.stl
G0 F3600 X-6.665 Y7.076
G0 X-5.576 Y7.076
G0 X-2.925 Y3.524
G1 F1500 E24.30936
G0 F3600 X-3.207 Y3.239
;TYPE:WALL-OUTER
G1 F1800 X-3.531 Y3.497 E24.34603
G1 X-3.915 Y3.66 E24.38296
G1 X-4.292 Y3.71 E24.41663
G1 X-5.79 Y3.71 E24.54925
G1 X-5.79 Y7.29 E24.86618
G1 X15.79 Y7.29 E26.77667
G1 X15.79 Y5.196 E26.96205
G1 X15.79 Y3.71 E27.0936
G1 X14.286 Y3.71 E27.22675
G1 X14.016 Y3.681 E27.25079
G1 X13.607 Y3.54 E27.28909
G1 X13.267 Y3.299 E27.32599
G1 X13.008 Y2.978 E27.3625
G1 X12.842 Y2.592 E27.3997
G1 X12.79 Y2.045 E27.44835
G1 X12.79 Y-7.29 E28.27478
G1 X8.502 Y-7.29 E28.65439
G1 X8.503 Y-4.457 E28.9052
G1 X9.051 Y-3.895 E28.97469
G1 X9.521 Y-3.239 E29.04613
G1 X9.906 Y-2.463 E29.12282
G1 X10.127 Y-1.782 E29.18621
G1 X10.268 Y-.926 E29.26301
G1 X10.27 Y-.117 E29.33463
G1 X10.137 Y0.744 E29.41176
G1 X9.863 Y1.567 E29.48855
G1 X9.623 Y2.026 E29.53441
G1 X9.289 Y2.564 E29.59047
G1 X8.931 Y3.033 E29.6427
G1 X8.465 Y3.492 E29.70061
G1 X7.766 Y4.003 E29.77727
G1 X6.993 Y4.394 E29.85396
G1 X6.297 Y4.622 E29.9188
G1 X5.457 Y4.765 E29.99423
G1 X4.798 Y4.781 E30.05259
G1 X3.955 Y4.682 E30.12773
G1 X3.161 Y4.454 E30.20087
G1 X2.51 Y4.161 E30.26407
G1 X1.829 Y3.728 E30.33551
G1 X1.179 Y3.15 E30.41252
G1 X0.859 Y2.756 E30.45745
G1 X0.613 Y2.446 E30.49249
G1 X0.197 Y1.704 E30.5678
G1 X-0.035 Y1.108 E30.62442
G1 X-.229 Y0.263 E30.70117
G1 X-.284 Y-.389 E30.7591
G1 X-.25 Y-1.1 E30.82212
G1 X-.1 Y-1.891 E30.89339
G1 X0.115 Y-2.516 E30.95191
G1 X0.509 Y-3.284 E31.02832
G1 X0.925 Y-3.864 E31.09151
G1 X1.487 Y-4.44 E31.16276
G1 X1.487 Y-7.29 E31.41507
G1 X-2.789 Y-7.289 E31.79362
G1 X-2.79 Y2.22 E32.63545
G1 X-2.822 Y2.508 E32.66111
G1 X-2.962 Y2.898 E32.69779
G1 X-3.207 Y3.239 E32.73497
G0 F3600 X-3.363 Y3.363
G0 X-3.118 Y3.694
G0 X4.316 Y5.083
G0 X5.469 Y5.105
G0 X6.441 Y4.916
G0 X12.626 Y3.153
;TYPE:WALL-INNER
G1 F1800 X12.426 Y2.651 E32.7828
G1 X12.37 Y2.045 E32.83668
G1 X12.37 Y-6.87 E33.62593
G1 X8.922 Y-6.87 E33.93118
G1 X8.923 Y-4.642 E34.12843
G1 X9.357 Y-4.183 E34.18435
G1 X9.863 Y-3.483 E34.26082
G1 X10.282 Y-2.649 E34.34345
G1 X10.527 Y-1.91 E34.41237
G1 X10.682 Y-.993 E34.4947
G1 X10.69 Y-.117 E34.57226
G1 X10.552 Y0.81 E34.65523
G1 X10.261 Y1.701 E34.73821
G1 X9.994 Y2.223 E34.79012
G1 X9.774 Y2.619 E34.83022
G1 X9.26 Y3.294 E34.90534
G1 X8.759 Y3.792 E34.96787
G1 X8.013 Y4.343 E35.04998
G1 X7.181 Y4.77 E35.13277
G1 X6.427 Y5.022 E35.20315
G1 X5.526 Y5.179 E35.28412
G1 X4.813 Y5.201 E35.34727
G1 X3.905 Y5.099 E35.42816
G1 X3.044 Y4.858 E35.50732
G1 X2.336 Y4.543 E35.57592
G1 X1.603 Y4.082 E35.65258
G1 X0.899 Y3.463 E35.73557
G1 X0.531 Y3.019 E35.78662
G1 X0.247 Y2.652 E35.82771
G1 X-.162 Y1.924 E35.90163
G1 X-.427 Y1.26 E35.96492
G1 X-.639 Y0.356 E36.04713
G1 X-.703 Y-.355 E36.11033
G1 X-.67 Y-1.121 E36.1782
G1 X-.512 Y-1.971 E36.25474
G1 X-.282 Y-2.654 E36.31854
G1 X0.136 Y-3.477 E36.40026
G1 X0.584 Y-4.11 E36.46892
G1 X1.067 Y-4.612 E36.53059
G1 X1.067 Y-6.87 E36.73049
G1 X-2.369 Y-6.869 E37.03468
G1 X-2.37 Y2.218 E37.83916
G1 X-2.424 Y2.642 E37.877
G1 X-2.616 Y3.136 E37.92392
G1 X-2.939 Y3.563 E37.97132
G1 X-3.36 Y3.881 E38.01802
G1 X-3.836 Y4.072 E38.06343
G1 X-4.292 Y4.13 E38.10413
G1 X-5.37 Y4.13 E38.19956
G1 X-5.37 Y6.87 E38.44213
G1 X15.37 Y6.87 E40.27825
G1 X15.37 Y5.196 E40.42645
G1 X15.37 Y4.13 E40.52082
G1 X14.304 Y4.13 E40.6152
G1 X13.886 Y4.081 E40.65245
G1 X13.371 Y3.887 E40.70118
G1 X12.945 Y3.569 E40.74824
G1 X12.626 Y3.153 E40.79465
G0 F3600 X12.86 Y4.025
;TYPE:SKIN
G1 F1800 X12.395 Y3.533 E40.85458
G1 X12.088 Y2.929 E40.91456
G1 X11.971 Y2.241 E40.97635
G1 X11.97 Y-6.47 E41.74753
G1 X9.322 Y-6.47 E41.98196
G1 X9.323 Y-4.801 E42.12972
G1 X9.739 Y-4.346 E42.1843
G1 X10.258 Y-3.601 E42.26468
G1 X10.694 Y-2.697 E42.35353
G1 X10.937 Y-1.911 E42.42637
G1 X11.088 Y-.924 E42.51476
G1 X11.08 Y0.014 E42.59781
G1 X10.912 Y1.015 E42.68766
G1 X10.611 Y1.903 E42.77067
G1 X10.278 Y2.543 E42.83454
G1 X9.944 Y3.057 E42.88881
G1 X9.486 Y3.642 E42.95459
G1 X8.946 Y4.158 E43.02071
G1 X8.132 Y4.739 E43.10925
G1 X7.243 Y5.179 E43.19706
G1 X6.423 Y5.433 E43.27306
G1 X5.472 Y5.585 E43.35832
G1 X4.703 Y5.596 E43.42641
G1 X3.72 Y5.469 E43.51415
G1 X2.816 Y5.199 E43.59768
G1 X2.052 Y4.843 E43.6723
G1 X1.279 Y4.337 E43.75409
G1 X0.536 Y3.661 E43.84302
G1 X-0.002 Y2.995 E43.91881
G1 X-.335 Y2.425 E43.97726
G1 X-.581 Y1.964 E44.02352
G1 X-.836 Y1.288 E44.08748
G1 X-1.048 Y0.326 E44.17469
G1 X-1.104 Y-.432 E44.24198
G1 X-1.055 Y-1.258 E44.31523
G1 X-.873 Y-2.163 E44.39696
G1 X-.613 Y-2.895 E44.46573
G1 X-.156 Y-3.765 E44.55273
G1 X0.288 Y-4.382 E44.62002
G1 X0.667 Y-4.775 E44.66836
G1 X0.667 Y-6.469 E44.81833
G1 X-1.969 Y-6.469 E45.05169
G1 X-1.97 Y2.242 E45.82288
G1 X-2.043 Y2.767 E45.86981
G1 X-2.264 Y3.324 E45.92286
G1 X-2.649 Y3.837 E45.97964
G1 X-3.163 Y4.227 E46.03676
G1 X-3.725 Y4.455 E46.09045
G1 X-4.269 Y4.529 E46.13906
G1 X-4.97 Y4.53 E46.20112
G1 X-4.969 Y6.469 E46.37278
G1 X14.97 Y6.47 E48.13798
G1 X14.97 Y5.489 E48.22483
G1 X14.97 Y4.527 E48.30999
G1 X14.008 Y4.509 E48.39518
G1 X13.421 Y4.351 E48.44899
G1 X12.86 Y4.025 E48.50643
G0 F3600 X12.492 Y2.413
G0 X11.559 Y-6.26
G1 F1800 X11.76 Y-6.058 E48.53166
G0 F3600 X11.76 Y-5.464
G1 F1800 X10.965 Y-6.26 E48.63126
G0 F3600 X10.371 Y-6.26
G1 F1800 X11.76 Y-4.87 E48.80523
G0 F3600 X11.76 Y-4.276
G1 F1800 X9.777 Y-6.26 E49.05356
G0 F3600 X9.531 Y-5.912
G1 F1800 X11.76 Y-3.682 E49.3327
G0 F3600 X11.761 Y-3.087
G1 F1800 X9.531 Y-5.317 E49.61189
G1 X9.461 Y-5.387
G0 F3600 X10.177 Y-4.077
G1 F1800 X11.761 Y-2.493 E49.81021
G0 F3600 X11.761 Y-1.899
G1 F1800 X10.882 Y-2.778 E49.92026
G1 X10.812 Y-2.848
G0 F3600 X11.148 Y-1.918
G1 F1800 X11.761 Y-1.306 E49.99695
G0 F3600 X11.251 Y-1.221
G1 F1800 X11.761 Y-.712 E50.06074
G0 F3600 X11.293 Y-.585
G1 F1800 X11.762 Y-.117 E50.11939
G0 F3600 X11.284 Y-0.001
G1 F1800 X11.762 Y0.476 E50.17918
G0 F3600 X11.206 Y0.515
G1 F1800 X11.762 Y1.07 E50.24873
G0 F3600 X11.762 Y1.664
G1 F1800 X11.117 Y1.02 E50.32942
G0 F3600 X10.977 Y1.474
G1 F1800 X11.762 Y2.258 E50.42764
G0 F3600 X11.901 Y2.991
G1 F1800 X10.825 Y1.916 E50.56229
G0 F3600 X10.632 Y2.316
G1 F1800 X14.574 Y6.259 E51.05589
G0 F3600 X14.759 Y5.849
G1 F1800 X13.489 Y4.579 E51.2149
G0 F3600 X14.218 Y4.714
G1 F1800 X14.759 Y5.255 E51.28263
G0 F3600 X13.98 Y6.259
G1 F1800 X10.423 Y2.701 E51.72803
G0 F3600 X10.189 Y3.061
G1 F1800 X13.386 Y6.259 E52.12836
G0 F3600 X12.792 Y6.259
G1 F1800 X9.936 Y3.403 E52.48593
G0 F3600 X9.675 Y3.735
G1 F1800 X12.199 Y6.259 E52.80194
G0 F3600 X11.605 Y6.259
G1 F1800 X9.378 Y4.032 E53.08076
G0 F3600 X9.072 Y4.321
G1 F1800 X11.011 Y6.259 E53.32346
G0 F3600 X10.417 Y6.259
G1 F1800 X8.727 Y4.57 E53.53499
G0 F3600 X8.379 Y4.815
G1 F1800 X9.823 Y6.259 E53.71578
G0 F3600 X9.229 Y6.259
G1 F1800 X8.006 Y5.036 E53.8689
G0 F3600 X7.607 Y5.231
G1 F1800 X8.635 Y6.259 E53.99761
G0 F3600 X8.04 Y6.258
G1 F1800 X7.197 Y5.415 E54.10315
G0 F3600 X6.741 Y5.553
G1 F1800 X7.446 Y6.258 E54.19142
G0 F3600 X6.852 Y6.258
G1 F1800 X6.266 Y5.672 E54.26478
G0 F3600 X5.75 Y5.75
G1 F1800 X6.258 Y6.258 E54.32839
G0 F3600 X5.664 Y6.258
G1 F1800 X5.204 Y5.798 E54.38598
G0 F3600 X5.07 Y6.258
G1 F1800 X4.61 Y5.798 E54.44357
G0 F3600 X4.476 Y6.258
G1 F1800 X3.921 Y5.703 E54.51306
G0 F3600 X3.882 Y6.258
G1 F1800 X3.136 Y5.512 E54.60646
G0 F3600 X3.288 Y6.258
G1 F1800 X2.145 Y5.115 E54.74956
G1 X2.075 Y5.045
G0 F3600 X2.1 Y6.258
G1 F1800 X-1.779 Y2.378 E55.23528
G0 F3600 X-1.864 Y2.887
G1 F1800 X1.506 Y6.257 E55.6572
G0 F3600 X0.912 Y6.257
G1 F1800 X-2.042 Y3.303 E56.02704
G0 F3600 X-2.266 Y3.673
G1 F1800 X0.318 Y6.257 E56.35056
G0 F3600 X-.275 Y6.257
G1 F1800 X-2.531 Y4.002 E56.63295
G0 F3600 X-2.867 Y4.26
G1 F1800 X-.869 Y6.257 E56.88304
G0 F3600 X-1.463 Y6.257
G1 F1800 X-3.235 Y4.486 E57.10483
G0 F3600 X-3.666 Y4.649
G1 F1800 X-2.057 Y6.257 E57.30622
G0 F3600 X-2.651 Y6.257
G1 F1800 X-4.179 Y4.729 E57.49752
G0 F3600 X-4.759 Y4.743
G1 F1800 X-3.245 Y6.257 E57.68708
G0 F3600 X-3.839 Y6.257
G1 F1800 X-4.759 Y5.337 E57.80226
G0 F3600 X-4.759 Y5.931
G1 F1800 X-4.433 Y6.257 E57.84308
G0 F3600 X-1.762 Y1.801
G1 F1800 X2.694 Y6.258 E58.40103
G1 X2.764 Y6.328
G0 F3600 X-.601 Y2.368
G1 F1800 X-1.762 Y1.207 E58.54639
G0 F3600 X-1.762 Y0.613
G1 F1800 X-1.038 Y1.337 E58.63704
G0 F3600 X-1.207 Y0.574
G1 F1800 X-1.762 Y0.019 E58.70652
G0 F3600 X-1.289 Y-.101
G1 F1800 X-1.762 Y-.574 E58.76574
G0 F3600 X-1.296 Y-.702
G1 F1800 X-1.761 Y-1.167 E58.82396
G0 F3600 X-1.265 Y-1.265
G1 F1800 X-1.761 Y-1.761 E58.88606
G0 F3600 X-1.761 Y-2.355
G1 F1800 X-1.166 Y-1.76 E58.96056
G0 F3600 X-1.062 Y-2.25
G1 F1800 X-1.76 Y-2.948 E59.04795
G0 F3600 X-1.76 Y-3.542
G1 F1800 X-.907 Y-2.689 E59.15474
G0 F3600 X-.734 Y-3.11
G1 F1800 X-1.76 Y-4.136 E59.2832
G0 F3600 X-1.759 Y-4.729
G1 F1800 X-.53 Y-3.5 E59.43707
G0 F3600 X-.323 Y-3.887
